gama.ui.shared/icons_svg/dark/gaml/_float.svg

<svg height="18" viewBox="-489.587 -2834.086 24 18" width="24" xmlns="http://www.w3.org/2000/svg"><g fill="#999"><path d="m-487.3281-2830.0232h-.03725l-1.99835 1.1142-.2234-.6747 2.32105-1.3083h.81919v11.6116h-.86884v-10.7428z"/><path d="m-483.97104-2819.8835c0-.4702.32274-.8075.76954-.8075.44684 0 .75714.3475.75714.8075 0 .4293-.29789.7973-.76954.7973-.47166 0-.76955-.368-.75714-.7973z"/><path d="m-474.5871-2825.2498c0 4.1602-1.5639 6.1636-4.00906 6.1636-1.91144 0-3.67394-1.7683-3.7236-5.9488 0-4.2318 1.94866-6.0512 4.00906-6.0512s3.7236 1.8296 3.7236 5.8364zm-6.81417.2351c0 3.2505 1.16673 5.2232 2.91682 5.2232 2.03555 0 2.96645-2.2078 2.96645-5.3663 0-3.1584-.86883-5.2232-2.94163-5.2232-1.67562 0-2.94164 1.942-2.94164 5.3663z"/></g></svg>

<?xml version="1.0" encoding="UTF-8" standalone="no"?>
<!DOCTYPE svg PUBLIC "-//W3C//DTD SVG 1.1//EN" "http://www.w3.org/Graphics/SVG/1.1/DTD/svg11.dtd">
<svg xmlns:dc="http://purl.org/dc/elements/1.1/" xmlns:xl="http://www.w3.org/1999/xlink" version="1.1" xmlns="http://www.w3.org/2000/svg" viewBox="-489.5871 -2834.0862 24 18" width="24" height="18">
  <defs/>
  <g id="SOURCES" stroke-dasharray="none" stroke="none" stroke-opacity="1" fill="none" fill-opacity="1">
    <title>SOURCES</title>
    <g id="SOURCES_New">
      <title>New</title>
      <g id="Group_10480">
        <g id="Graphic_10145"/>
        <g id="Group_10049">
          <g id="Graphic_10048">
            <path d="M -487.3281 -2830.0232 L -487.36535 -2830.0232 L -489.3637 -2828.909 L -489.5871 -2829.5837 L -487.26605 -2830.892 L -486.44686 -2830.892 L -486.44686 -2819.2804 L -487.3157 -2819.2804 L -487.3157 -2830.0232 Z" fill="#999"/>
          </g>
          <g id="Graphic_10047">
            <path d="M -483.97104 -2819.8835 C -483.97104 -2820.3537 -483.6483 -2820.691 -483.2015 -2820.691 C -482.75466 -2820.691 -482.44436 -2820.3435 -482.44436 -2819.8835 C -482.44436 -2819.4542 -482.74225 -2819.0862 -483.2139 -2819.0862 C -483.68556 -2819.0862 -483.98345 -2819.4542 -483.97104 -2819.8835 Z" fill="#999"/>
          </g>
          <g id="Graphic_10046">
            <path d="M -474.5871 -2825.2498 C -474.5871 -2821.0896 -476.151 -2819.0862 -478.59616 -2819.0862 C -480.5076 -2819.0862 -482.2701 -2820.8545 -482.31976 -2825.035 C -482.31976 -2829.2668 -480.3711 -2831.0862 -478.3107 -2831.0862 C -476.2503 -2831.0862 -474.5871 -2829.2566 -474.5871 -2825.2498 Z M -481.40127 -2825.0147 C -481.40127 -2821.7642 -480.23454 -2819.7915 -478.48445 -2819.7915 C -476.4489 -2819.7915 -475.518 -2821.9993 -475.518 -2825.1578 C -475.518 -2828.3162 -476.38683 -2830.381 -478.45963 -2830.381 C -480.13525 -2830.381 -481.40127 -2828.439 -481.40127 -2825.0147 Z" fill="#999"/>
          </g>
        </g>
      </g>
    </g>
  </g>
</svg>
